public/library/paris-blockchain-week-icon-dark.svg

<svg width="256" height="236" viewBox="0 0 256 236" fill="none" xmlns="http://www.w3.org/2000/svg">
<path d="M149.278 5.26826C139.655 2.68552 129.76 8.39322 127.177 18.0168L108.778 86.5721C106.195 96.1956 111.903 106.091 121.527 108.674L190.081 127.072C199.705 129.655 209.6 123.948 212.183 114.324L230.582 45.7685C233.165 36.1449 227.457 26.2496 217.833 23.6669L149.278 5.26826Z" fill="#F4F2EE"/>
<path d="M83.9906 87.4384C76.5289 81.3319 65.5846 82.1715 59.1418 89.3448L13.1775 140.52C6.30196 148.175 7.21084 160.022 15.1737 166.538L68.9848 210.576C76.4464 216.682 87.3906 215.842 93.8334 208.669L139.798 157.494C146.673 149.839 145.765 137.993 137.802 131.477L83.9906 87.4384Z" fill="#F4F2EE"/>
<path d="M255.965 149.781C255.965 139.817 247.887 131.739 237.923 131.739H170.462C160.497 131.739 152.42 139.817 152.42 149.781V217.243C152.42 227.207 160.497 235.284 170.462 235.284H237.923C247.887 235.284 255.965 227.207 255.965 217.243V149.781Z" fill="#F4F2EE"/>
</svg>

<svg xmlns="http://www.w3.org/2000/svg" width="256" height="236" fill="none" viewBox="0 0 256 236"><path fill="#f4f2ee" d="M149.278 5.268c-9.623-2.582-19.518 3.125-22.101 12.749l-18.399 68.555c-2.583 9.624 3.125 19.519 12.749 22.102l68.554 18.398c9.624 2.583 19.519-3.124 22.102-12.748l18.399-68.555c2.583-9.624-3.125-19.52-12.749-22.102zM83.99 87.438c-7.461-6.106-18.405-5.267-24.848 1.907L13.178 140.52c-6.876 7.655-5.967 19.502 1.996 26.018l53.81 44.038c7.462 6.106 18.407 5.266 24.85-1.907l45.964-51.175c6.875-7.655 5.967-19.501-1.996-26.017zM255.965 149.781c0-9.964-8.078-18.042-18.042-18.042h-67.461c-9.965 0-18.042 8.078-18.042 18.042v67.462c0 9.964 8.077 18.041 18.042 18.041h67.461c9.964 0 18.042-8.077 18.042-18.041z"/></svg>
